!! 00000] TT[WS
!!!OTL: Fenhong lian
!!!ARE: Asia, China,ÿShanxi Wutai
!! Ethnic Group: Han
!! WI, 100
!!!SCT: J0117
!!!YEM: Copyright 1995, estate of Helmut Schaffrath.
**kern
*ICvox
*Ivox
*M2/4
*k[f#]
*G:
{8g
8a
8dd
8b
=1
2a
=2
8b
8a
8g
8e
=3
2d}
=4
{4g
4a
=5
8b
8dd
8b
8a
=6
8g
8a
8g
8e
=7
2d}
=8
{8g
8b
4a
=9
8a
8dd
8b
8dd
=10
4a
8d
8e
=11
2g}
=12
{8b
8a
8g
8e
=13
4d
4d
=14
8e
8d
8b
8a
=15
2g}
==
!!!AGN: Xiaodiao. Qingge, Aisu
!!!ONB: ESAC (Essen Associative Code) Database: CHINA
!!!AMT: simple duple
!!!AIN: vox
!!!EED: Helmut Schaffrath
!!!EEV: 1.0
*-
